X:1
T:Magnus, 11.11.11.11 refrain
T:Magnus, 11.11.11.11 refrain
T:John Bunyan Herbert, 1901
T:Public Domain Courtesy of the Cyber Hymnal™
C:John Bunyan Herbert, 1901
Z:Public Domain
Z:Courtesy of the Cyber Hymnal™
%%score ( 1 2 ) ( 3 4 )
L:1/8
Q:1/4=98
M:6/8
K:Eb
V:1 treble 
V:2 treble 
V:3 bass 
V:4 bass 
V:1
 E | [EG][EG][EG] [B,F][B,E][EG] | [GB][GB][Ac] [GB]2 [EG] | [DF][DF][EG] [FA][Bd][Ac] | %4
 [Ac][GB][^F=A] [GB]2 [=F_A] | [EG][EG][EG] [B,F][B,E][EG] | [GB][GB][Gc] [Fd]2 [Ad] | %7
 [Ge][Gd][Gc] [FB][DF][Fd] | [Ec][EG][E=A] B3 x ||"^Refrain" [GB]3 [EG][B,F][B,E] | %10
 [B,F]3 [B,E]2 [GB] | ([Ac]3 c)d[Ae] | [GB]6 | [Be]3 [Af][Ae][Ac] | [GB]3 !fermata![Fe]2 [EF] | %15
 [EG]3 ([DF][CE])[B,F] | [B,E]3- [B,E]2 |] %17
V:2
 E | x6 | x6 | x6 | x6 | x6 | x6 | x6 | x3 (D2 _A) x || x6 | x6 | x3 A2 x | x6 | x6 | x6 | x6 | %16
 x5 |] %17
V:3
 [E,G,] | [E,B,][E,B,][E,B,] [E,A,][E,G,][E,B,] | [E,E][E,E][E,E] [E,E]2 [E,B,] | %3
 [B,,B,][B,,B,][B,,B,] [B,,B,][B,,B,][B,,D] | [E,E][E,E][E,E] [E,E]2 [E,B,] | %5
 [E,B,][E,B,][E,B,] [E,A,][E,G,][E,B,] | [E,E][E,B,][E,B,] [B,,B,]2 [B,,B,] | %7
 [E,B,][E,B,][E,C] [F,D][F,B,][F,B,] | [F,=A,][F,B,][F,C] B,2 x2 || [E,E]3 [E,B,][E,A,][E,G,] | %10
 [B,,A,]3 [E,G,]2 [E,E] | ([A,E]3 E)D[A,C] | [E,E]6 | [G,_D]3 [A,C][A,C][A,E] | %14
 [E,E]3 !fermata![C,=A,]2 [C,A,] | [B,,B,]3 [B,,A,]2 [B,,A,] | [E,G,]3- [E,G,]2 |] %17
V:4
 x | x6 | x6 | x6 | x6 | x6 | x6 | x6 | x3 B,,3 D || x6 | x6 | x3 A,2 x | x6 | x6 | x6 | x6 | x5 |] %17

